X: 300
T:Heveinu Shalom Aleichem
C:Jewish celebratory song
C:As remembered by T. Traub 1-19-2003
R:Reel
M:4/4
K:Dm
L: 1/8
|:z A,DF|"Dm"A4 "A"F3 E|"Dm"E2 D2-DDFA|"Gm"d4 "A"B3 A|"Gm"A2 G2-GGAB|
"A"A3 E A3 G|"Dm"G2 F2-FEFG|"A"A2 A2 A2 A2|1 "A"A2>G2 F2 G2|"A"A4 :|\
|2 "A"A2>G2 F2 E2|"D"D4 z4|
